src/assets/filled/CardEdit.svg

<?xml version="1.0" encoding="UTF-8"?>
<svg width="24" height="24" viewBox="0 0 24 24" xmlns="http://www.w3.org/2000/svg">
 <path d="m13.5 4.61v2.93c0 0.67-0.54 1.21-1.21 1.21h-9.08c-0.68 0-1.21-0.56-1.21-1.23 0.01-1.13 0.46-2.16 1.21-2.91s1.79-1.21 2.93-1.21h6.15c0.67 0 1.21 0.54 1.21 1.21z"/>
 <path d="m2 11.46v5c0 2.29 1.85 4.14 4.14 4.14h11.71c2.29 0 4.15-1.86 4.15-4.15v-4.99c0-0.67-0.54-1.21-1.21-1.21h-17.58c-0.67 0-1.21 0.54-1.21 1.21zm6 5.79h-2c-0.41 0-0.75-0.34-0.75-0.75s0.34-0.75 0.75-0.75h2c0.41 0 0.75 0.34 0.75 0.75s-0.34 0.75-0.75 0.75zm6.5 0h-4c-0.41 0-0.75-0.34-0.75-0.75s0.34-0.75 0.75-0.75h4c0.41 0 0.75 0.34 0.75 0.75s-0.34 0.75-0.75 0.75z"/>
 <path d="m19.97 1.75h-2.94c-1.27 0-2.03 0.76-2.03 2.03v2.94c0 1.27 0.76 2.03 2.03 2.03h2.94c1.27 0 2.03-0.76 2.03-2.03v-2.94c0-1.27-0.76-2.03-2.03-2.03zm-1.96 5.57c-0.03 0.03-0.1 0.07-0.15 0.07l-1.04 0.15c-0.03 0.01-0.07 0.01-0.1 0.01-0.15 0-0.28-0.05-0.37-0.15-0.12-0.12-0.17-0.29-0.14-0.47l0.15-1.04c0.01-0.05 0.04-0.12 0.07-0.15l1.7-1.7c0.03 0.07 0.06 0.15 0.09 0.23 0.04 0.08 0.08 0.15 0.12 0.22 0.03 0.06 0.07 0.12 0.11 0.16 0.04 0.06 0.08 0.12 0.11 0.15 0.02 0.03 0.03 0.04 0.04 0.05 0.09 0.11 0.19 0.21 0.28 0.28 0.02 0.02 0.04 0.04 0.05 0.04 0.05 0.04 0.11 0.09 0.15 0.12 0.06 0.04 0.11 0.08 0.17 0.11 0.07 0.04 0.15 0.08 0.23 0.12s0.16 0.07 0.23 0.09l-1.7 1.71zm2.39-2.39-0.33 0.33c-0.01 0.02-0.04 0.03-0.07 0.03h-0.03c-0.72-0.21-1.29-0.78-1.5-1.5-0.01-0.04 0-0.08 0.03-0.11l0.33-0.33c0.54-0.54 1.05-0.53 1.58 0 0.27 0.27 0.4 0.53 0.4 0.79-0.01 0.26-0.14 0.52-0.41 0.79z"/>
</svg>

<svg width="24" height="24" viewBox="0 0 24 24"  xmlns="http://www.w3.org/2000/svg">
<path d="M13.5 4.61002V7.54002C13.5 8.21002 12.96 8.75002 12.29 8.75002H3.21C2.53 8.75002 2 8.19002 2 7.52002C2.01 6.39002 2.46 5.36002 3.21 4.61002C3.96 3.86002 5 3.40002 6.14 3.40002H12.29C12.96 3.40002 13.5 3.94002 13.5 4.61002Z" />
<path d="M2 11.46V16.46C2 18.75 3.85 20.6 6.14 20.6H17.85C20.14 20.6 22 18.74 22 16.45V11.46C22 10.79 21.46 10.25 20.79 10.25H3.21C2.54 10.25 2 10.79 2 11.46ZM8 17.25H6C5.59 17.25 5.25 16.91 5.25 16.5C5.25 16.09 5.59 15.75 6 15.75H8C8.41 15.75 8.75 16.09 8.75 16.5C8.75 16.91 8.41 17.25 8 17.25ZM14.5 17.25H10.5C10.09 17.25 9.75 16.91 9.75 16.5C9.75 16.09 10.09 15.75 10.5 15.75H14.5C14.91 15.75 15.25 16.09 15.25 16.5C15.25 16.91 14.91 17.25 14.5 17.25Z" />
<path d="M19.97 1.75H17.03C15.76 1.75 15 2.51 15 3.78V6.72C15 7.99 15.76 8.75 17.03 8.75H19.97C21.24 8.75 22 7.99 22 6.72V3.78C22 2.51 21.24 1.75 19.97 1.75ZM18.01 7.32C17.98 7.35 17.91 7.39 17.86 7.39L16.82 7.54C16.79 7.55 16.75 7.55 16.72 7.55C16.57 7.55 16.44 7.5 16.35 7.4C16.23 7.28 16.18 7.11 16.21 6.93L16.36 5.89C16.37 5.84 16.4 5.77 16.43 5.74L18.13 4.04C18.16 4.11 18.19 4.19 18.22 4.27C18.26 4.35 18.3 4.42 18.34 4.49C18.37 4.55 18.41 4.61 18.45 4.65C18.49 4.71 18.53 4.77 18.56 4.8C18.58 4.83 18.59 4.84 18.6 4.85C18.69 4.96 18.79 5.06 18.88 5.13C18.9 5.15 18.92 5.17 18.93 5.17C18.98 5.21 19.04 5.26 19.08 5.29C19.14 5.33 19.19 5.37 19.25 5.4C19.32 5.44 19.4 5.48 19.48 5.52C19.56 5.56 19.64 5.59 19.71 5.61L18.01 7.32ZM20.4 4.93L20.07 5.26C20.06 5.28 20.03 5.29 20 5.29C19.99 5.29 19.98 5.29 19.97 5.29C19.25 5.08 18.68 4.51 18.47 3.79C18.46 3.75 18.47 3.71 18.5 3.68L18.83 3.35C19.37 2.81 19.88 2.82 20.41 3.35C20.68 3.62 20.81 3.88 20.81 4.14C20.8 4.4 20.67 4.66 20.4 4.93Z" />
</svg>
